icons/svg/24x24/maximize/outline.svg

<svg xmlns="http://www.w3.org/2000/svg" width="24" height="24" viewBox="0 0 24 24">
  <path fill-rule="evenodd" d="M19,18 C19,18.552 18.552,19 18,19 L17,19 L17,21 L18,21 C19.654,21 21,19.654 21,18 L21,16 L19,16 L19,18 Z M5,19 L13,19 L13,11 L5,11 L5,19 Z M15,11 L15,19 C15,20.104 14.104,21 13,21 L5,21 C3.896,21 3,20.104 3,19 L3,11 C3,9.896 3.896,9 5,9 L13,9 C14.104,9 15,9.896 15,11 L15,11 Z M19,14 L21,14 L21,10 L19,10 L19,14 Z M18,3 L16,3 L16,5 L18,5 C18.552,5 19,5.448 19,6 L19,8 L21,8 L21,6 C21,4.346 19.654,3 18,3 L18,3 Z M5,6 C5,5.448 5.449,5 6,5 L8,5 L8,3 L6,3 C4.346,3 3,4.346 3,6 L3,7 L5,7 L5,6 Z M10,5 L14,5 L14,3 L10,3 L10,5 Z"/>
</svg>

<svg width="24" height="24" fill="none" xmlns="http://www.w3.org/2000/svg">
  <path fill-rule="evenodd" clip-rule="evenodd" d="M19 18a1 1 0 01-1 1h-1v2h1c1.654 0 3-1.346 3-3v-2h-2v2zM5 19h8v-8H5v8zm10-8v8a2 2 0 01-2 2H5a2 2 0 01-2-2v-8a2 2 0 012-2h8a2 2 0 012 2zm4 3h2v-4h-2v4zM18 3h-2v2h2a1 1 0 011 1v2h2V6c0-1.654-1.346-3-3-3zM5 6c0-.552.449-1 1-1h2V3H6C4.346 3 3 4.346 3 6v1h2V6zm5-1h4V3h-4v2z" fill="#000"/>
</svg>
